X: 1394
T: An Siocán Sneachta
R: jig
M: 6/8
K: Edorian
B,CD ~E3|FEE FEE|B,CD ~E3|FED ~E2F|
GEE FDD|EFE DB,A,|B,2E EAG|FED EGD|
B,CD ~E3|FEE FEE|B,CD EAG|FED ~E2F|
~G2A ~F2D|EFE DB,A,|B,2E EAG|FED E3||
e2f dBA|B/c/dB AFD|Eee dBA|Bcd ~e3|
gee fdd|edB AGA|DFA dAF|FED E3|
e3 dBA|B/c/dB AFD|Eee dBA|Bcd e2e|
gee fdd|edB AGA|DFA dAF|FED EGA||
BGG AFF|GFE FDD|~B2d AGF|GAF E2A|
BGG AFF|GAG FED|B,2E EAG|FED EGA|
BGG AFF|GEE FDD|BGG AFF|GAF EFA|
~B2d ~A2F|GAG FED|B,2E EAG|FED E3||

